X:1
T:4 Lieder, Op. 1 (Lieder für eine Singstimme mit Pianofortebegleitung)
T:Viel tausend Blümlein auf der Au'
T:4 Lieder, Op. 1
T:Clara Faisst
T:3. Viel tausend Blümlein auf der Au’
T:Albert Traeger
T:Creative Commons copyright waiver (CC0 1.0 Universal)
T:Creative Commons copyright waiver (CC0 1.0 Universal)
C:Clara Faisst
Z:Albert Traeger
Z:Creative Commons copyright waiver (CC0 1.0 Universal)
%%score 1 { ( 2 4 6 ) | ( 3 5 ) }
L:1/8
Q:1/4=80
M:4/4
K:C
V:1 treble nm="Voice\nGesang"
V:2 treble nm="Piano"
V:4 treble 
V:6 treble 
V:3 bass 
V:5 bass 
V:1
"^Einfach und ausdrucksvoll"!mf! E | A3 c B A ^G A | B4 z2 z B | d3 c B3 A | ^G2 B2 z2 z E | %5
w: Viel|tau- send Blüm- lein auf der|Au’ ver-|wel- ken und ver-|schma- chten, es|
!<(! A3 B c d e A!<)! | f4 z2 z d | d3 c f e!>(! d c | c3 B[Q:1/4=72] A!>)! z!pp! E2 | %9
w: la- bet sie kein Tröp- flein|Thau, will|nie- mand, nie- mand ih- rer|ach- * ten. Viel|
[Q:1/4=80]!<(! E3 A ^G A B c!<)! |!p! B4 z2 z!<(! B | e3 ^A B2 =A2!<)! |!mf! ^G2 B2 z2 E2 | %13
w: Her- zen auf der Welt ver-|gehn, in|hei- ssem Sehn- suchts-|trie- be weil|
!f! e3 B c c f e | B4 z2 z!p! d | d c!<(! B A!<)! e4 |!>(! A2!>)! z2[Q:1/4=74] z4[Q:1/4=76] || %17
w: ein- sam sie, ver- las- sen|stehn, und|fin- den kei- ne Lie-|be.|
[K:A]"^dolce"[Q:1/4=78] E2 A c B A G A | B4 z4 | e2 B3/2 B/ B2 A2 | G2 B2 z4 | %21
w: Siehst du am Weg ein Blüm- lein|blühn,|beug’ dich zu ihm her-|nie- der,|
!<(! A2 A B c d e A!<)! | f4 z2!f! A2 | A3 E c A F E |!>(! B4 A2!>)! z2 | z8 | z8 | z8 | %28
w: siehst du ein Herz in Lie- be|glühn, o,|lieb’ es, lieb’ es treu- lich|wie- der!||||
[Q:1/4=76] z8[Q:1/4=74] | z8 | z8 |] %31
w: |||
V:2
!mf! E | [Ac]3 [Ae] [Bd][Ac] [^GB][Ac] | [E^GB]4 z2 z B | d3 c B3 [^FA] | ^G2 B2 z2 z [DE] | %5
 [CA]3 [EB] cd[EAe][EGA] | [FAf]4 z2 [DAd]2 | [Ed]3 c [Af][Ae][E^Gd][EAc] | %8
 c3 B"_rit."!>(! [CA] z E2!>)! |!pp! (.[EA].[EAe].[E^Gd].[EAc] .[EGB].[EA].[DE^G].[CEA]) | %10
!p! !arpeggio![B,E^GB]4 z2 z [^FB] |!<(! ([E^Ge][E-G][EA][E=G^A] Be!<)!^g^f | %12
!>(! [^Ge]BGE =DB,!>)! E2) |!mf!!<(! c3 ^G [EA][Ec]!<)![A-d][Ac] | %14
!f! [DB]!>(![Ac][=GB][FA] [EG][DF][CE][B,D]!>)! |!p! [^G,B,][A,C] DD [B,E] [Ec]2 [DB] | %16
!pp! [CA]"_rit."[Ac][ce][cea] [Be^g]2 [^GBe]2 ||[K:A]!p! ([EAe]2 [EAc][CEA] [EG][EA] [EGd][EAc]) | %18
!<(! [GB]2 [GBe][GBf] [ABf]!<)![FA^d]!>(![EAc][^DFB]!>)! | [EB]2 [EG]>[EG] G2 F2 | %20
 [Ee]2 [EGB]>[EGB] [CEA]2 [B,DEG]2 | [A,CEA]2 a2- ag!>(! =g^e!>)! | %22
!mf!!<(! !arpeggio![DAdf]4 z2 z A!<)! |!f!!>(! AGFE!>)!!mf! [CE][EA][Ad][Ac] | %24
!>(! B4 [CEA]2 z2!>)! |"^espress."!p!!<(! (a2 gf!<)!!mp!!<(! [Ac]4-!<)! | %26
!>(! cd^de [EAe]2) z2!>)! |[I:staff +1] (B,C D[G,E][I:staff -1] [CE]4-) | %28
"^rit.""_dim." (EEFG [EA][DAd]-[DAd][DAB] | [EAc]2) z2 z4 |!pp! !fermata![cea]4 z4 |] %31
V:3
 z | (A,,E,A,C ^G,A, E,A,,) | (E,,B,,E,^G,[I:staff -1] B,E^GB) |[I:staff +1] F,,D,F,A, D,F,D,^D, | %4
 E,B,,^G,,E,, F,E,=D,B,, | A,,E,A,^G, A,B,C^C | DA,FE DA,G,F, | E,A,CE[I:staff -1] DCB,A, | %8
[I:staff +1] F,D, E,2 A,,E,A,B, | (.C.[A,C].[B,D].C .D.C.B,.A,) | %10
!<(! (!tenuto!.E,E,,B,,E, ^G,B,E^D)!<)! | ^C C2 =C B,E, B,,2 | E,,2 z4 [E,^G,B,]2 | C3 D CA,F,^F, | %14
 G,4- G,^G,A,E, | F,2 F,,2 ^G,E,^F,G, | A,2 z2 E,B,[I:staff -1]ED || %17
[K:A]!ped![I:staff +1] C2 A,2!ped-up! (DC B,A,) |!ped! [E,E]4!ped-up! B,3 A, | %19
 [G,B,]2 [E,B,]>[E,B,] A,4 | G,2[I:staff -1] =D>D[I:staff +1] [E,,E,]4 | %21
!ped! A,,2 [A,E=G]2-!ped-up! [A,EG]2 EC |!ped! (D,,!mp!A,,D,F, A,[I:staff -1]DFA)!ped-up! | %23
[I:staff +1] E,,A,,C,E, A,C[I:staff -1] FE |[I:staff +1] E,,2 E,2 A,,E,C,A,, | %25
!ped! F,,C,F,A,!ped-up! CD^DF | E2 [E,=D]2!ped! C2 x2!ped-up! | %27
 [E,G,]2 [E,B,]2!ped! E,C,E,B,!ped-up! | [A,,E,A,]2 [A,,E,B,]2 [A,,E,C] [A,,F,]2 [A,,=F,] | %29
 [A,,E,]2 z2!p! A,,,2 z2 |[I:staff -1] [A,EA]4[I:staff +1] z4 |] %31
V:4
 x | x8 | x8 | [DA]4 FD B,2 | [B,E]4 x4 | x4 E2 x2 | x8 | A4 x4 | DFED x2 CD | x8 | x8 | %11
 x4 [E^G]2 [=AB^d]2 | x6 ED | E4 x2 D2 | x8 | x2 A,2 x4 | x8 ||[K:A] x8 | x8 | x4 ^D4 | x8 | %21
 x2 [Ac][Bd] [ce]2 [Ac]2 | x8 | [A,C]4 x4 | EB,ED x4 | [Ac]4 x4 | A2 G2 x4 | x8 | C2 D2 x4 | x8 | %30
 x8 |] %31
V:5
 x | x8 | x8 | x8 | x8 | x8 | x8 | x3 E x4 | x8 | x8 | x8 | x8 | x8 | A,,E,A,D x4 | x8 | x4 E,,4 | %16
 A,,2 x6 ||[K:A] x8 | x8 | x4 B,,4 | [B,,E,]4 x4 | x6 A,2 | x8 | x8 | x8 | x8 | x4 A,E,C,A,, | %27
 E,,4 A,,4 | x8 | x8 | x8 |] %31
V:6
 x | x8 | x8 | x8 | x8 | x8 | x8 | x8 | ^G4 x4 | x8 | x8 | x8 | x8 | x8 | x8 | x8 | x8 ||[K:A] x8 | %18
 x8 | x8 | x8 | x8 | x8 | x8 | A2 G2 x4 | x8 | x8 | x8 | x8 | x8 | x8 |] %31

